X:4115
T:McCabes
O:england
M:4/4
L:1/8
S:Connie Connel, Cork (fiddle)
R:Reel
D:Session tape - Milltown Malbay 1983
N:As played
K:G
(3FED DF +F3A3+G | {A}GEcEdEcF | {G}FEDF ABAG | {A}GEcE {G}EDD2:: Ad~d2 dfed |\
~B3c {d}Beef | {g}fedc ~d3A | BdAG FDDB | Ad~d2 dfea | (3.B.c.d eg {a}g2fg |\
afge ~d3A | BdAG FDDB |: ~F3G A2d2 |~G2d2 ~G2d2| ~F3G A2d2 | ADGE {G}EDD2 :|


